src/status/symbolic/security-high-symbolic.svg

<?xml version="1.0" encoding="UTF-8" standalone="no"?>
<svg
   xmlns:dc="http://purl.org/dc/elements/1.1/"
   xmlns:cc="http://creativecommons.org/ns#"
   xmlns:rdf="http://www.w3.org/1999/02/22-rdf-syntax-ns#"
   xmlns:svg="http://www.w3.org/2000/svg"
   xmlns="http://www.w3.org/2000/svg"
   id="svg3935"
   height="16"
   width="16"
   version="1.1">
  <defs
     id="defs3937" />
  <metadata
     id="metadata3940">
    <rdf:RDF>
      <cc:Work
         rdf:about="">
        <dc:format>image/svg+xml</dc:format>
        <dc:type
           rdf:resource="http://purl.org/dc/dcmitype/StillImage" />
        <dc:title />
      </cc:Work>
    </rdf:RDF>
  </metadata>
  <g
     id="g4"
     transform="translate(-913.6875,250.9375)" />
  <g
     id="g4189">
    <path
       id="path8117"
       d="M 8 0 L 1 2.1289062 L 1 2.5 C 1 6.6186368 1.0914972 9.0416717 2.0292969 10.949219 C 2.9670966 12.856766 4.7033327 14.092 7.75 15.855469 L 8 16 L 8.25 15.855469 C 11.296667 14.092 13.032903 12.856766 13.970703 10.949219 C 14.908503 9.0416717 15 6.6186368 15 2.5 L 15 2.1289062 L 8 0 z M 11.341797 4.0761719 C 12.253797 4.0501719 12.722359 5.1569687 12.068359 5.7929688 L 6.8613281 11 L 3.9550781 8.09375 C 2.9730781 7.1517501 4.4271406 5.6976875 5.3691406 6.6796875 L 6.8613281 8.171875 L 10.654297 4.3789062 A 1 1 0 0 1 11.341797 4.0761719 z "
       style="color:#000000;font-style:normal;font-variant:normal;font-weight:normal;font-stretch:normal;font-size:medium;line-height:normal;font-family:sans-serif;text-indent:0;text-align:start;text-decoration:none;text-decoration-line:none;text-decoration-style:solid;text-decoration-color:#000000;letter-spacing:normal;word-spacing:normal;text-transform:none;direction:ltr;block-progression:tb;writing-mode:lr-tb;baseline-shift:baseline;text-anchor:start;white-space:normal;clip-rule:nonzero;display:inline;overflow:visible;visibility:visible;opacity:1;isolation:auto;mix-blend-mode:normal;color-interpolation:sRGB;color-interpolation-filters:linearRGB;solid-color:#000000;solid-opacity:1;fill:#4e9a06;fill-opacity:1;fill-rule:nonzero;stroke:none;stroke-width:1;stroke-linecap:round;stroke-linejoin:miter;stroke-miterlimit:4;stroke-dasharray:none;stroke-dashoffset:0;stroke-opacity:1;color-rendering:auto;image-rendering:auto;shape-rendering:auto;text-rendering:auto;enable-background:accumulate" />
  </g>
</svg>

<svg width="16" height="16" version="1.1" xmlns="http://www.w3.org/2000/svg">
 <path d="m8 0-7 2.1289v0.37109c0 4.1186 0.091497 6.5417 1.0293 8.4492 0.9378 1.9075 2.674 3.1428 5.7207 4.9062l0.25 0.14453 0.25-0.14453c3.0467-1.7635 4.7829-2.9987 5.7207-4.9062 0.9378-1.9075 1.0293-4.3306 1.0293-8.4492v-0.37109l-7-2.1289zm3.3418 4.0762c0.912-0.026 1.3806 1.0808 0.72656 1.7168l-5.207 5.207-2.9062-2.9062c-0.982-0.942 0.47206-2.3961 1.4141-1.4141l1.4922 1.4922 3.793-3.793a1 1 0 0 1 0.6875-0.30273z" color="#000000" color-rendering="auto" fill="#4e9a06" image-rendering="auto" shape-rendering="auto" solid-color="#000000" style="block-progression:tb;isolation:auto;mix-blend-mode:normal;text-decoration-color:#000000;text-decoration-line:none;text-decoration-style:solid;text-indent:0;text-transform:none;white-space:normal"/>
</svg>
